src/images/partners/insurace.io.svg

<?xml version="1.0" encoding="UTF-8"?>
<svg width="256px" height="256px" viewBox="0 0 256 256" version="1.1" xmlns="http://www.w3.org/2000/svg" xmlns:xlink="http://www.w3.org/1999/xlink">
    <!-- Generator: Sketch 55.2 (78181) - https://sketchapp.com -->
    <title>logo备份 2</title>
    <desc>Created with Sketch.</desc>
    <g id="网站" stroke="none" stroke-width="1" fill="none" fill-rule="evenodd">
        <g id="画板" transform="translate(-404.000000, -181.000000)">
            <g id="logo备份-2" transform="translate(404.000000, 181.000000)">
                <g id="logo备份">
                    <circle id="椭圆形" fill="#FFFFFF" cx="128" cy="128" r="128"/>
                    <g id="logo-dark-(v)" transform="translate(26.763636, 55.854545)">
                        <path d="M20.3498814,60.0574172 C25.2154525,58.2459459 29.0559361,54.4123883 30.876633,49.5496497 C27.9530942,44.1869315 28.9108854,37.5389516 33.2293006,33.2199052 C37.5477157,28.9008588 44.1947239,27.9429275 49.5566581,30.8668937 C51.9756706,30.00874 54.1641907,28.6041368 55.952053,26.762297 C57.790884,24.9692579 59.1947625,22.7788873 60.0560498,20.3591261 C56.8956113,14.5688004 58.2872891,7.34998559 63.3737091,3.14999382 C68.4601291,-1.04999794 75.8108312,-1.04999794 80.8972512,3.14999382 C85.9836711,7.34998559 87.375349,14.5688004 84.2149105,20.3591261 C85.0753201,22.7793178 86.4793188,24.9698758 88.3189073,26.762297 C90.1091994,28.6044422 92.3000052,30.0090102 94.7211422,30.8668937 C95.9523412,30.9147806 104.153495,31.3799683 109.48185,38.2756907 C111.942041,41.5274946 113.313593,45.4727804 113.401167,49.5496497 C115.217904,54.4173308 119.063081,58.2530804 123.934759,60.0574172 C129.724238,56.8965167 136.941998,58.2883981 141.141376,63.3755616 C145.340754,68.4627252 145.340754,75.8145019 141.141376,80.9016655 C136.941998,85.988829 129.724238,87.3807104 123.934759,84.2198099 C119.072968,86.0361004 115.237712,89.8719167 113.421687,94.7344184 C116.345226,100.097137 115.387435,106.745116 111.06902,111.064163 C106.750605,115.383209 100.103596,116.341141 94.7416621,113.417174 C89.8763601,115.228 86.0391515,119.06577 84.2285905,123.931783 C87.389029,129.722109 85.9973511,136.940924 80.9109311,141.140915 C75.8245112,145.340907 68.4738091,145.340907 63.3873891,141.140915 C58.3009691,136.940924 56.9092913,129.722109 60.0697297,123.931783 C58.2537047,119.069281 54.4184491,115.233465 49.5566581,113.417174 C44.1962723,116.349007 37.5449873,115.395329 33.2240769,111.07537 C28.9031665,106.75541 27.9471928,100.103502 30.876633,94.7412594 C29.0521556,89.8794225 25.2133761,86.0450711 20.3498814,84.2266509 C14.5603361,87.3836885 7.3453755,85.9897577 3.14801807,80.90325 C-1.04933936,75.8167422 -1.04933936,68.4673259 3.14801807,63.3808181 C7.3453755,58.2943104 14.5603361,56.9003796 20.3498814,60.0574172 Z M25.821877,65.5302129 C28.065107,69.6428944 28.065107,74.6138097 25.821877,78.7264913 C27.6429142,83.5975399 31.485132,87.4403194 36.3554686,89.2616228 C41.7173529,86.32589 48.3727977,87.2792838 52.6951703,91.6022884 C57.017543,95.9252929 57.9707974,102.581711 55.0354938,107.944379 C56.8515188,112.806881 60.6867744,116.642697 65.5485654,118.458987 C69.6606458,116.215429 74.6308345,116.215429 78.7429149,118.458987 C83.6047058,116.642697 87.4399615,112.806881 89.2559865,107.944379 C86.3324477,102.581661 87.290239,95.9336808 91.6086541,91.6146343 C95.9270692,87.2955879 102.574077,86.3376566 107.936012,89.2616228 C112.797803,87.4453323 116.633058,83.609516 118.449083,78.7470142 C116.212178,74.6327218 116.212178,69.6650283 118.449083,65.5507358 C116.638522,60.6847226 112.801314,56.8469529 107.936012,55.0361273 C104.063349,54.4747429 100.406762,52.9033605 97.3340201,50.4800249 C93.0171293,46.9216017 90.145187,41.9113849 89.2559865,36.3875762 C87.4504079,31.5137647 83.6124839,27.6677875 78.7429149,25.8524447 C74.6292238,28.089677 69.6622564,28.089677 65.5485654,25.8524447 C60.6832634,27.6632704 56.8460547,31.50104 55.0354938,36.3670533 C57.9473887,41.7289044 56.9841993,48.367927 52.6686783,52.680918 C48.3531573,56.993909 41.7144013,57.9523752 36.3554686,55.0361273 C31.4901306,56.842923 27.6473877,60.6712538 25.821877,65.5302129 Z" id="形状" fill="#217F52"/>
                        <path d="M94.5474862,55.0224453 C89.6808192,56.833271 85.8425341,60.6710406 84.0314651,65.5370538 C86.2689979,69.6513463 86.2689979,74.6190398 84.0314651,78.7333323 C84.8894639,81.1548231 86.2942206,83.3459493 88.1366132,85.1365031 C90.1286032,87.2168308 92.6427423,88.7241665 95.4164092,89.5010576 C97.7905532,90.0757012 96.1006005,93.4072655 94.6501149,94.8438743 C93.1996292,96.2804832 89.8607754,97.9838908 89.3065804,95.6100657 C88.529585,92.8367714 87.0220467,90.32297 84.9414396,88.3312476 C83.1506452,86.4891023 80.9592248,85.0845343 78.5374086,84.2266509 C72.7462391,87.3836885 65.5292544,85.9897577 61.3307194,80.90325 C57.1321844,75.8167422 57.1321844,68.4673259 61.3307194,63.3808181 C65.5292544,58.2943104 72.7462391,56.9003796 78.5374086,60.0574172 C83.4040755,58.2465916 87.2423607,54.408822 89.0534296,49.5428087 C86.1231676,44.1805659 87.0794095,37.5286582 91.4015321,33.2086985 C95.7236547,28.8887388 102.376806,27.9350616 107.738695,30.8668937 C110.158031,30.0039517 112.34837,28.6000768 114.142726,26.762297 C115.984163,24.9709626 117.388767,22.7800742 118.247874,20.3591261 C115.086549,14.5688004 116.478618,7.34998559 121.566465,3.14999382 C126.654312,-1.04999794 134.007076,-1.04999794 139.094923,3.14999382 C144.18277,7.34998559 145.574838,14.5688004 142.413513,20.3591261 C143.270621,22.7810527 144.675501,24.9723701 146.518661,26.762297 C148.30936,28.601279 150.497784,30.005427 152.91585,30.8668937 C158.27774,27.9350616 164.930891,28.8887388 169.253013,33.2086985 C173.575136,37.5286582 174.531378,44.1805659 171.601116,49.5428087 C173.412185,54.408822 177.25047,58.2465916 182.117137,60.0574172 C187.908306,56.9003796 195.125291,58.2943104 199.323826,63.3808181 C203.522361,68.4673259 203.522361,75.8167422 199.323826,80.90325 C195.125291,85.9897577 187.908306,87.3836885 182.117137,84.2266509 C177.25047,86.0374765 173.412185,89.8752461 171.601116,94.7412594 C174.531378,100.103502 173.575136,106.75541 169.253013,111.07537 C164.930891,115.395329 158.27774,116.349007 152.91585,113.417174 C148.056188,115.238893 144.221793,119.072774 142.399829,123.931783 C145.561154,129.722109 144.169086,136.940924 139.081239,141.140915 C133.993392,145.340907 126.640628,145.340907 121.552781,141.140915 C116.464934,136.940924 115.072866,129.722109 118.234191,123.931783 C117.373267,121.513718 115.96884,119.325447 114.129043,117.535453 C112.136,115.456444 109.622246,113.949339 106.849247,113.170899 C104.475103,112.589414 106.165055,109.264691 107.615541,107.828082 C109.066027,106.391473 112.40488,104.688065 112.959075,107.05505 C113.735575,109.830533 115.243095,112.346668 117.324216,114.340709 C119.115791,116.181898 121.306974,117.586314 123.728247,118.445305 C127.841481,116.201747 132.813064,116.201747 136.926298,118.445305 C141.789453,116.629015 145.625785,112.793199 147.442319,107.930697 C144.51796,102.567979 145.47602,95.9199988 149.795647,91.6009523 C154.115274,87.2819059 160.764147,86.3239746 166.127585,89.2479408 C170.99074,87.4316503 174.827072,83.595834 176.643606,78.7333323 C174.399747,74.6206507 174.399747,69.6497354 176.643606,65.5370538 C174.827072,60.6745521 170.99074,56.8387358 166.127585,55.0224453 C160.764147,57.9464115 154.115274,56.9884802 149.795647,52.6694338 C145.47602,48.3503873 144.51796,41.7024074 147.442319,36.3396893 C145.625785,31.4771876 141.789453,27.6413712 136.926298,25.8250807 C132.813064,28.0686386 127.841481,28.0686386 123.728247,25.8250807 C121.306974,26.6840725 119.115791,28.0884882 117.324216,29.9296774 C115.486189,31.7237923 114.082126,33.9138372 113.219068,36.3328483 C116.151294,41.6940177 115.197489,48.3462751 110.876949,52.6678172 C106.556409,56.9893593 99.9036074,57.9454728 94.5406442,55.0156043 L94.5474862,55.0224453 Z" id="路径" fill="#2DB269"/>
                        <circle id="椭圆形" fill="#217F52" fill-rule="nonzero" cx="102.4" cy="101.042424" r="13.9636364"/>
                    </g>
                </g>
            </g>
        </g>
    </g>
</svg>

<svg xmlns="http://www.w3.org/2000/svg" width="256" height="256"><g fill="none" fill-rule="evenodd"><circle cx="128" cy="128" r="128" fill="#FFF"/><g transform="translate(26.764 55.855)"><path fill="#217F52" d="M20.35 60.057A17.915 17.915 0 0 0 30.877 49.55a13.772 13.772 0 0 1 2.352-16.33 13.767 13.767 0 0 1 16.328-2.353 16.69 16.69 0 0 0 6.395-4.105 16.822 16.822 0 0 0 4.104-6.403A13.765 13.765 0 0 1 63.374 3.15a13.76 13.76 0 0 1 17.523 0 13.765 13.765 0 0 1 3.318 17.21c.86 2.42 2.264 4.61 4.104 6.402a16.71 16.71 0 0 0 6.402 4.105c1.231.048 9.432.513 14.76 7.409a19.375 19.375 0 0 1 3.92 11.274 17.867 17.867 0 0 0 10.534 10.507 13.76 13.76 0 0 1 17.206 3.319 13.766 13.766 0 0 1 0 17.526 13.76 13.76 0 0 1-17.206 3.318 17.915 17.915 0 0 0-10.513 10.514 13.772 13.772 0 0 1-2.353 16.33 13.767 13.767 0 0 1-16.327 2.353 17.867 17.867 0 0 0-10.513 10.515 13.765 13.765 0 0 1-3.318 17.209 13.76 13.76 0 0 1-17.524 0 13.765 13.765 0 0 1-3.317-17.21 17.915 17.915 0 0 0-10.513-10.514 13.76 13.76 0 0 1-16.333-2.342 13.766 13.766 0 0 1-2.347-16.334A17.963 17.963 0 0 0 20.35 84.227a13.76 13.76 0 0 1-17.202-3.324 13.766 13.766 0 0 1 0-17.522 13.76 13.76 0 0 1 17.202-3.324Zm5.472 5.473a13.78 13.78 0 0 1 0 13.196 17.963 17.963 0 0 0 10.533 10.536 13.76 13.76 0 0 1 16.34 2.34 13.766 13.766 0 0 1 2.34 16.342A17.915 17.915 0 0 0 65.55 118.46a13.774 13.774 0 0 1 13.194 0 17.915 17.915 0 0 0 10.513-10.515 13.772 13.772 0 0 1 2.353-16.33 13.767 13.767 0 0 1 16.327-2.352 17.915 17.915 0 0 0 10.513-10.515 13.814 13.814 0 0 1 0-13.196 17.867 17.867 0 0 0-10.513-10.515 22.283 22.283 0 0 1-10.602-4.556 23 23 0 0 1-8.078-14.092 17.867 17.867 0 0 0-10.513-10.536 13.808 13.808 0 0 1-13.194 0 17.867 17.867 0 0 0-10.514 10.515 13.772 13.772 0 0 1-2.366 16.314 13.767 13.767 0 0 1-16.314 2.355A17.915 17.915 0 0 0 25.822 65.53Z"/><path fill="#2DB269" d="M94.547 55.022a17.87 17.87 0 0 0-10.516 10.515 13.81 13.81 0 0 1 0 13.196 16.712 16.712 0 0 0 4.106 6.404 16.086 16.086 0 0 0 7.28 4.364c2.374.575.684 3.906-.767 5.343-1.45 1.436-4.79 3.14-5.343.766a16.083 16.083 0 0 0-4.366-7.279 16.715 16.715 0 0 0-6.404-4.104 13.767 13.767 0 0 1-17.206-3.324 13.763 13.763 0 0 1 0-17.522 13.767 13.767 0 0 1 17.206-3.324 17.87 17.87 0 0 0 10.516-10.514 13.763 13.763 0 0 1 2.349-16.334 13.767 13.767 0 0 1 16.337-2.342 16.872 16.872 0 0 0 6.404-4.105 16.746 16.746 0 0 0 4.105-6.403 13.763 13.763 0 0 1 3.318-17.209c5.088-4.2 12.441-4.2 17.529 0a13.763 13.763 0 0 1 3.319 17.21 16.685 16.685 0 0 0 4.105 6.402 16.797 16.797 0 0 0 6.397 4.105 13.767 13.767 0 0 1 16.337 2.342 13.763 13.763 0 0 1 2.348 16.334 17.87 17.87 0 0 0 10.516 10.514 13.767 13.767 0 0 1 17.207 3.324 13.763 13.763 0 0 1 0 17.522 13.767 13.767 0 0 1-17.207 3.324 17.87 17.87 0 0 0-10.516 10.514 13.763 13.763 0 0 1-2.348 16.334 13.767 13.767 0 0 1-16.337 2.342 17.966 17.966 0 0 0-10.516 10.515 13.763 13.763 0 0 1-3.319 17.209 13.767 13.767 0 0 1-17.528 0 13.763 13.763 0 0 1-3.319-17.21 16.774 16.774 0 0 0-4.105-6.396 16.12 16.12 0 0 0-7.28-4.364c-2.374-.582-.684-3.906.767-5.343 1.45-1.437 4.789-3.14 5.343-.773a16.096 16.096 0 0 0 4.365 7.286 16.75 16.75 0 0 0 6.404 4.104 13.781 13.781 0 0 1 13.198 0 17.918 17.918 0 0 0 10.516-10.514 13.77 13.77 0 0 1 2.354-16.33 13.774 13.774 0 0 1 16.332-2.353 17.918 17.918 0 0 0 10.516-10.515 13.776 13.776 0 0 1 0-13.196 17.918 17.918 0 0 0-10.516-10.515 13.774 13.774 0 0 1-16.332-2.353 13.77 13.77 0 0 1-2.354-16.33 17.918 17.918 0 0 0-10.516-10.514 13.781 13.781 0 0 1-13.198 0 16.75 16.75 0 0 0-6.404 4.105 16.87 16.87 0 0 0-4.105 6.403 13.763 13.763 0 0 1-2.342 16.335 13.767 13.767 0 0 1-16.336 2.348l.006.006Z"/><circle cx="102.4" cy="101.042" r="13.964" fill="#217F52" fill-rule="nonzero"/></g></g></svg>
